svgs/sharp-light/arrow-trend-down.svg

<svg xmlns="http://www.w3.org/2000/svg" viewBox="0 0 576 512"><!--! Font Awesome Pro 7.1.0 by @fontawesome - https://fontawesome.com License - https://fontawesome.com/license (Commercial License) Copyright 2025 Fonticons, Inc. --><path fill="currentColor" d="M368 416l208 0 0-208-32 0 0 153.4-212.7-212.7-11.3-11.3-11.3 11.3-116.7 116.7-164.7-164.7-22.6 22.6 176 176 11.3 11.3 11.3-11.3 116.7-116.7 201.4 201.4-153.4 0 0 32z"/></svg>

<svg xmlns="http://www.w3.org/2000/svg" viewBox="0 0 576 512"><!--! Font Awesome Pro 6.7.2 by @fontawesome - https://fontawesome.com License - https://fontawesome.com/license (Commercial License) Copyright 2024 Fonticons, Inc. --><path d="M368 416l16 0 176 0 16 0 0-16 0-176 0-16-32 0 0 16 0 137.4L331.3 148.7 320 137.4l-11.3 11.3L192 265.4 27.3 100.7 4.7 123.3l176 176L192 310.6l11.3-11.3L320 182.6 521.4 384 384 384l-16 0 0 32z"/></svg>
